X:1
T:Title
%%score { 1 | ( 2 3 ) }
L:1/8
M:4/4
K:G
V:1 treble nm="Grand Piano"
V:2 bass 
V:3 bass 
V:1
 z4 z2[Q:1/4=100] Bc | d2 B2 [EA]2 [EG][CE] | [B,D]2 [B,G]2 z2 [DG][DF] | %3
 [CE]2 [EG]2 [^CB]2 [CA]2 |[M:3/4] A6 |[M:1/4] Bc |[M:4/4] d2 B2 [EA]2 [EG][CE] | %7
 [B,D]2 [B,G]2 z2 [DG][DF] | [CE]2 [Ec]2 [DB]2 [CA]2 |[M:3/4] [B,G]6 |[M:1/4] [DF][EG] | %11
[M:4/4] [FA]2 [GB]2 [FA]2 [DF]2 | [DF]2 [^CE]2 z2 [CE][DF] | [EG]2 [GB]2 [GB]2 [FA]G |[M:3/4] F6 | %15
[M:1/4] F[EG] |[M:4/4] [FA]2 [FA]2 [Fd]2 [A^c]2 | [A^c]2 B2 z2 BB | B2 A2 B2 ^c2 | %19
[M:7/8] [Fd]- [Fd]3 c3 |[M:1/4] Bc |[M:4/4] d2 B2 [EA]2 [EG][CE] | [B,D]2 [B,G]2 z2 [DG][DF] | %23
 [CE]2 [EG]2 [^CB]2 [CA]2 |[M:3/4] A6 |[M:1/4] Bc |[M:4/4] d2 B2 [EA]2 [EG][CE] | %27
 [B,D]2 [B,G]2 z2 [DG][DF] | [CE]2 [Ec]2 [DB]2 [CA]2 |[M:7/4] [B,G]6 z2 z2 z4 |] %30
V:2
 z4 z2 [G,D][G,A,D] | [G,B,D]2 [G,D]2 [C,C]2 [C,G,]2 | [G,,G,]2 [G,,G,]2 z2 [B,,G,][B,,G,] | %3
 [C,G,]2 [C,G,]2 [A,,G,]2 [A,,G,]2 |[M:3/4] [D,F,D]6 |[M:1/4] [G,D][G,A,D] | %6
[M:4/4] [G,B,D]2 [G,D]2 [C,C]2 [C,G,]2 | [G,,G,]2 [G,,G,]2 z2 [B,,G,][B,,G,] | %8
 [C,G,]2 [A,,G,]2 [D,G,]2 [D,F,]2 |[M:3/4] [G,,G,]6 |[M:1/4] [D,A,][D,A,] | %11
[M:4/4] [D,D]2 [D,D]2 [D,D]2 [D,A,]2 | [A,,A,]2 [A,,A,]2 z2 [A,,A,][A,,A,] | %13
 [A,,A,]2 [A,,A,]2 [A,,A,]2 z E |[M:3/4] [D,A,D]6 |[M:1/4] [D,A,D][D,A,] | %16
[M:4/4] [D,D]2 [D,D]2 [D,D]2 [D,D]2 | [G,D]2 [G,DG]2 z2 [G,DG][G,DG] | %18
 [A,DF]2 [A,DF]2 [A,^CG]2 [A,G]2 |[M:7/8][K:bass] A,- A,3 [F,D]3 |[M:1/4] [G,D][G,A,D] | %21
[M:4/4] [G,B,D]2 [G,D]2 [C,C]2 [C,G,]2 | [G,,G,]2 [G,,G,]2 z2 [B,,G,][B,,G,] | %23
 [C,G,]2 [C,G,]2 [A,,G,]2 [A,,G,]2 |[M:3/4] [D,F,D]6 |[M:1/4] [G,D][G,A,D] | %26
[M:4/4] [G,B,D]2 [G,D]2 [C,C]2 [C,G,]2 | [G,,G,]2 [G,,G,]2 z2 [B,,G,][B,,G,] | %28
 [C,G,]2 [A,,G,]2 [D,G,]2 [D,F,]2 |[M:7/4] [G,,G,]6 z2 z2 z4 |] %30
V:3
 x8 | x8 | x8 | x8 |[M:3/4] x6 |[M:1/4] x2 |[M:4/4] x8 | x8 | x8 |[M:3/4] x6 |[M:1/4] x2 | %11
[M:4/4] x8 | x8 | z4 z2 [A,,A,]2 |[M:3/4] x6 |[M:1/4] x2 |[M:4/4] x8 | x8 | x8 | %19
[M:7/8][K:bass] D,-D,-D,- D,- D,2- D,/ z/ |[M:1/4] x2 |[M:4/4] x8 | x8 | x8 |[M:3/4] x6 | %25
[M:1/4] x2 |[M:4/4] x8 | x8 | x8 |[M:7/4] x14 |] %30

